teeny/outline/ab-testing.svg

<svg width="15" height="15" viewBox="0 0 15 15" fill="none" xmlns="http://www.w3.org/2000/svg">
<path d="M1.5 11V6.5C1.5 5.39543 2.39543 4.5 3.5 4.5C4.60457 4.5 5.5 5.39543 5.5 6.5V11M1.5 8.5H5.5M12 7.5H9.5M12 7.5C12.8284 7.5 13.5 6.82843 13.5 6C13.5 5.17157 12.8284 4.5 12 4.5H9.5V7.5M12 7.5C12.8284 7.5 13.5 8.17157 13.5 9C13.5 9.82843 12.8284 10.5 12 10.5H9.5V7.5M7.5 1V14" stroke="black"/>
</svg>

<svg viewBox="0 0 15 15" xmlns="http://www.w3.org/2000/svg"><path fill="none" stroke="#000" d="M1.5 11V6.5c0-1.11.89-2 2-2 1.1 0 2 .89 2 2V11m-4-2.5h4m6.5-1H9.5m2.5 0c.82 0 1.5-.68 1.5-1.5 0-.83-.68-1.5-1.5-1.5H9.5v3m2.5 0c.82 0 1.5.67 1.5 1.5 0 .82-.68 1.5-1.5 1.5H9.5v-3M7.5 1v13"/></svg>
